X: 17074
T: Heavens Gate
R: waltz
M: 3/4
K: Dmajor
AB>c|d3 dc>e|B4 c>B|A3 FE>D|D3 AB>c|
d3 dc>e|B4 c>B|A3 GF>G|E4 E>F|A2 A>FE>F|
G4 E>F|A2 A>FE>F|G4 E>F|A2 A2 B2|c2 B2 A2|
D2 F2 A2|d3:|/A/A/B|ceecef|ecBA AB|
ceecef|ecBA Ac|B >c B> c B >c|d2 c2 B2|A2 E2 F2|G4|
/A/A/B|ceecef|ecBA AB|ceecef|
ecBA Ac|B2 B3 c|d2 c2 B2|1 A2 E2 F2|G4:|2 A2 c2 e2|a4||

